X:16
T:Lay the Bent to the Bonny Broom
Z:Jack Campin, http://www.campin.me.uk/
S:Northumbrian Minstrelsy
M:3/4
L:1/8
Q:"Slowly"
K:G Minor
D B A|G G A B c B|A4\
                     B c|d2  d> c d f|d3
d d c|B2  d2  c B|A4\
                     G A|c B A G  A B|G3|]

